X:1
T:The Old, Old Path
T:The Old, Old Path
T:Audentia Anderson
T:Vida Elizabeth Smith, 1903
T:Public Domain Courtesy of the Cyber Hymnal™
C:Audentia Anderson
Z:Public Domain
Z:Courtesy of the Cyber Hymnal™
%%score ( 1 2 ) 3
L:1/8
Q:1/4=80
M:6/8
K:Eb
V:1 treble 
V:2 treble 
V:3 bass 
V:1
 E/[DF]/ | [EG]2 [EG] E2 [DF]/[EG]/ | [EA]2 [Ec] [EB]2 [EG]/[FA]/ | [GB]2 [Ac] [GB]2 E/[DF]/ | %4
w: 1.~There’s an|old, old, path Where the|sun shines thro’ Li- fe’s|dark storm clouds From its|
w: 2.~Find the|old, old, path ’Twill be|ev- er new, For the|Sav- ior walks All the|
w: 3.~In the|old, old path Are my|friends most dear, And I|walk with them, With the|
w: 4.~’Tis an|old, old path Sha- dowed|vales be- tween, Yet I|fear- less walk With the|
 [EG]2 [DF] [DF]2 ||"^Refrain" [EG]/[GB]/ | [Ge]2 [Ge] [GB]2 [GB] | [Ac]2 [Ae] [GB]2 E/[EG]/ | %8
w: home of blue.||||
w: way with you.||||
w: an- gels near.|In this|old, old path Made|strange- ly sweet By the|
w: Na- za- rene.||||
 [EB]2 [Ec] [EB]2 E/[DF]/ | [EG]2 [DF] E2 |] %10
w: ||
w: ||
w: touch di- vine Of His|bless- èd feet.|
w: ||
V:2
 E/ x/ | x3 E2 x | x6 | x5 E/ x/ | x5 || x | x6 | x5 E/ x/ | x5 E/ x/ | x3 E2 |] %10
V:3
 [E,G,]/[E,A,]/ | [E,B,]2 [E,B,] [E,G,]2 [E,A,]/[E,B,]/ | [A,,C]2 [A,,A,] [E,G,]2 [E,B,]/[E,B,]/ | %3
 [E,B,]2 [E,E] [E,E]2 [C,G,]/[B,,A,]/ | [B,,B,]2 [B,,B,] [B,,B,]2 || [E,B,]/[E,B,]/ | %6
 [E,B,]2 [E,B,] [E,E]2 [E,E] | [A,,E]2 [C,E] [E,E]2 [E,G,]/[E,B,]/ | %8
 [E,G,]2 [E,A,] [E,G,]2 [C,G,]/[_C,A,]/ | [B,,B,]2 [B,,A,] [E,G,]2 |] %10

